X:1
T:Sonny Riordan's
R:polka
M:2/4
L:1/8
K:A
A>B|:ce df|ea dc/d/|ea e/f/e/d/|cA BA/B/|
|ce d/e/f|ea dc/d/|ea e/f/e/d/|1 cA AA/B/:|2 cA Ae|]
|aa fe/f/|ac dc/d/|ea e/f/e/d/|cA Be|
|aa fe/f/|ac dc/d/|ea e/f/e/d/|cA Ae|
|aa fe/f/|ac dc/d/|ea e/f/e/d/|cA BA/B/|
|ce d/e/f|ea dc/d/|ea e/f/e/d/|cA A>B|